X: 37754
T: Some Boy John
R: reel
M: 4/4
K: Eminor
EBeg fBed|BBAB dBAF|EBeg fBe/f/g|a z aa gfeB|
EBeB f2 ed|BBAB dBAF|EBeg f2 e/f/g|a z aa gfeB|
g2 fg e ~g3|fged B/c/def|g2 fg edB/A/G|AEGA B/c/def|
g/g/gfz eg z e|fged B/c/def|gBfg edB/A/G|AEGA _B2 AG||

